apps/frontend/src/assets/icons/share-variant.svg

<svg width="24" height="24" viewBox="0 0 24 24" fill="none" xmlns="http://www.w3.org/2000/svg">
<path d="M18 16.08C17.24 16.08 16.56 16.38 16.04 16.85L8.91 12.7C8.96 12.47 9 12.24 9 12C9 11.76 8.96 11.53 8.91 11.3L15.96 7.19C16.5 7.69 17.21 8 18 8C18.7956 8 19.5587 7.68393 20.1213 7.12132C20.6839 6.55871 21 5.79565 21 5C21 4.20435 20.6839 3.44129 20.1213 2.87868C19.5587 2.31607 18.7956 2 18 2C17.2044 2 16.4413 2.31607 15.8787 2.87868C15.3161 3.44129 15 4.20435 15 5C15 5.24 15.04 5.47 15.09 5.7L8.04 9.81C7.5 9.31 6.79 9 6 9C5.20435 9 4.44129 9.31607 3.87868 9.87868C3.31607 10.4413 3 11.2044 3 12C3 12.7956 3.31607 13.5587 3.87868 14.1213C4.44129 14.6839 5.20435 15 6 15C6.79 15 7.5 14.69 8.04 14.19L15.16 18.34C15.11 18.55 15.08 18.77 15.08 19C15.08 20.61 16.39 21.91 18 21.91C19.61 21.91 20.92 20.61 20.92 19C20.92 18.2256 20.6124 17.4829 20.0648 16.9352C19.5171 16.3876 18.7744 16.08 18 16.08Z" fill="currentColor"/>
</svg>

<svg xmlns="http://www.w3.org/2000/svg" fill="none" viewBox="0 0 24 24"><path fill="currentColor" d="M18 16.08c-.76 0-1.44.3-1.96.77L8.91 12.7c.05-.23.09-.46.09-.7s-.04-.47-.09-.7l7.05-4.11a2.987 2.987 0 0 0 4.161-.069A3 3 0 1 0 15 5c0 .24.04.47.09.7L8.04 9.81a2.987 2.987 0 0 0-4.161.069A3 3 0 0 0 6 15c.79 0 1.5-.31 2.04-.81l7.12 4.15c-.05.21-.08.43-.08.66 0 1.61 1.31 2.91 2.92 2.91a2.915 2.915 0 1 0 0-5.83"/></svg>
